X:1
T:RVW2/1/120 Angel Gabriel
T:RVW2/1/120 Angel Gabriel
T:Transcribed by Simon Furey and Lewis Jones Mr. Hirons, near Weobley, July 27th 1908(?) [1 of 4]
C:Transcribed by Simon Furey and Lewis Jones
C:Mr. Hirons, near Weobley, July 27th 1908(?) [1 of 4]
L:1/8
Q:1/4=100
M:3/4
K:G
V:1 treble 
V:1
"^(Editorial suggestion)" D2 | G2 Ac BG | F>A !fermata!G2 d2 | c2 B2 A>G | D4"^(a)" DF | G2 Ac BG | %6
 F>A !fermata!G2 AB | c2 Ac BA | G4 Bc | d2 d2 ed | cB !fermata!A2 e2 | d2 B2 AG | %12
 !fermata!D4 (3DEF | G2 Ac BG | FA !fermata!G2 AB | c2 Ac BA | G4 || D2 | G2 Ac BG | %19
 F>A !fermata!G2 d2 | c2 B2 A>G | D4"^(a) var." (3DEF | G2 Ac BG | F>A !fermata!G2 AB | c2 Ac BA | %25
 G4 Bc | d2 d2 ed | cB !fermata!A2 e2 | d2 B2 AG | !fermata!D4 (3DEF | G2 Ac BG | %31
 FA !fermata!G2 AB | c2 Ac BA | G4 |] %34

